papirus/22x22/apps/tomato.svg

<svg height="22" width="22" xmlns="http://www.w3.org/2000/svg" xmlns:xlink="http://www.w3.org/1999/xlink"><clipPath id="a"><circle cx="286" cy="26" r="10"/></clipPath><g transform="matrix(.5 0 0 .5 -1 0)"><circle cx="24" cy="24" fill="#e74c3c" r="20"/><path d="m19.463055 2.0013589c-.136638.00578-.275698.02978-.413349.073885-.734139.2352459-1.141425.9482527-.913174 1.5985335l.572813 1.6320988c-8.302275.8004417-12.709345 9.5602488-12.709345 9.5602488 0 0 2.7780317.522448 9.478453-3.17854 1.861707-1.028316 2.934941-2.133669 3.54753-3.1338576-.126603 1.0317086-.108044 2.3544146.18751 4.0414506.742274 4.236977 3.843622 7.404822 3.843622 7.404822 0 0 3.753713-6.233206-.27146-12.3427497 5.936778 4.0328177 15.214345 2.2801007 15.214345 2.2801007 0 0-4.15608-3.9429319-8.568476-4.9257231-3.292575-.7333675-6.323669-.2543069-7.899633.1179171-.000927-.1204278-.021-.2422638-.063-.3618168l-.682084-1.9433481c-.185448-.5283535-.731689-.8479144-1.323789-.8230248z" fill-rule="evenodd" opacity=".2"/><circle clip-path="url(#a)" cx="286" cy="26" opacity="0" r="10" stroke-width=".45455" transform="matrix(2 0 0 2 -548 -28)"/><circle clip-path="url(#a)" cx="286" cy="26" opacity="0" r="10" stroke-width=".90908998" transform="matrix(2 0 0 2 -548 -28)"/><path d="m24 4c-11.079 0-19.998 8.92-19.998 20 0 .16772-.004.33329 0 .5.2642-10.846 9.087-19.5 19.998-19.5 10.911 0 19.734 8.6536 19.998 19.5.004-.16671 0-.33228 0-.5 0-11.08-8.919-20-19.998-20z" fill="#fff" opacity=".2"/><path d="m43.979 23.418a20 20 0 0 1 -19.979 19.582 20 20 0 0 1 -19.978-19.418 20 20 0 0 0 -.022.418 20 20 0 0 0  20 20 20 20 0 0 0  20-20 20 20 0 0 0 -.021-.582z" opacity=".3"/><path d="m19.463055 1.0013589c-.136638.00578-.275698.02978-.413349.073885-.734139.2352459-1.141425.9482527-.913174 1.5985335l.572813 1.6320988c-8.302275.8004417-12.709345 9.5602488-12.709345 9.5602488 0 0 2.7780317.522448 9.478453-3.17854 1.861707-1.028316 2.934941-2.133669 3.54753-3.1338576-.126603 1.0317086-.108044 2.3544146.18751 4.0414506.742274 4.236977 3.843622 7.404822 3.843622 7.404822 0 0 3.753713-6.233206-.27146-12.3427497 5.936778 4.0328177 15.214345 2.2801007 15.214345 2.2801007 0 0-4.15608-3.9429319-8.568476-4.9257231-3.292575-.7333675-6.323669-.2543069-7.899633.1179171-.000927-.1204278-.021-.2422638-.063-.3618168l-.682084-1.9433481c-.185448-.5283535-.731689-.8479144-1.323789-.8230248z" fill="#a6ef4d" fill-rule="evenodd"/><path d="m19.462891 1.0019531c-.136638.00578-.276412.030114-.414063.074219-.734139.2352459-1.14036.9473754-.912109 1.5976562l.05078.1445313c.153205-.3328143.45358-.6115296.861328-.7421875.137651-.044105.277425-.068439.414063-.074219.5921-.02489 1.13877.2939121 1.324218.8222657l.681641 1.9433593c.042.119553.06157.2409004.0625.3613281 1.575964-.3722239 4.607816-.8505549 7.900391-.1171874 3.117803.6944411 6.076464 2.8475224 7.5625 4.0625.438131-.0604666 1.00586-.1367188 1.00586-.1367188 0 0-4.155963-3.94299-8.568359-4.9257812-3.292575-.7333675-6.324427-.2550365-7.900391.1171874-.000927-.1204277-.0205-.2417751-.0625-.3613281l-.681641-1.9433593c-.185448-.5283535-.732118-.84715527-1.324218-.8222657zm-1.085938 3.3574219c-8.082421 1.002152-12.376953 9.505859-12.376953 9.505859 0 0 .1890164.03457.5722656.02344 1.3923836-2.266427 5.4924814-7.9414469 12.1367184-8.5820334zm4.408203 3.2988281c1.286245 1.9523063 1.773743 3.9134579 1.847656 5.6835939.06851-1.58205-.180206-3.369604-1.029296-5.1933595-.276019-.1570756-.554437-.3109533-.81836-.4902344zm-3.759765.8964844c-.01796.029314-.0457.060353-.06445.089844-.0038.2292909-.0082.459134.002.7109376.01178-.2844644.03189-.5513664.0625-.8007813z" fill="#fff" fill-rule="evenodd" opacity=".1"/></g></svg>

<?xml version="1.0" encoding="UTF-8" standalone="no"?>
<!-- Created with Inkscape (http://www.inkscape.org/) -->

<svg
   xmlns:dc="http://purl.org/dc/elements/1.1/"
   xmlns:cc="http://creativecommons.org/ns#"
   xmlns:rdf="http://www.w3.org/1999/02/22-rdf-syntax-ns#"
   xmlns:svg="http://www.w3.org/2000/svg"
   xmlns="http://www.w3.org/2000/svg"
   xmlns:sodipodi="http://sodipodi.sourceforge.net/DTD/sodipodi-0.dtd"
   xmlns:inkscape="http://www.inkscape.org/namespaces/inkscape"
   id="svg2817"
   height="22"
   width="22"
   version="1.0"
   inkscape:version="0.91 r13725"
   sodipodi:docname="tomato.svg">
  <sodipodi:namedview
     pagecolor="#ffffff"
     bordercolor="#666666"
     borderopacity="1"
     objecttolerance="10"
     gridtolerance="10"
     guidetolerance="10"
     inkscape:pageopacity="0"
     inkscape:pageshadow="2"
     inkscape:window-width="1600"
     inkscape:window-height="849"
     id="namedview31"
     showgrid="false"
     inkscape:zoom="4.04"
     inkscape:cx="-65.490099"
     inkscape:cy="24"
     inkscape:window-x="0"
     inkscape:window-y="0"
     inkscape:window-maximized="1"
     inkscape:current-layer="svg2817" />
  <metadata
     id="metadata57">
    <rdf:RDF>
      <cc:Work
         rdf:about="">
        <dc:format>image/svg+xml</dc:format>
        <dc:type
           rdf:resource="http://purl.org/dc/dcmitype/StillImage" />
        <dc:title></dc:title>
      </cc:Work>
    </rdf:RDF>
  </metadata>
  <defs
     id="defs2819">
    <clipPath
       id="clipPath4186"
       clipPathUnits="userSpaceOnUse">
      <circle
         id="path4188"
         style="color:#000000;fill:url(#linearGradient4190)"
         cx="286"
         cy="26"
         r="10" />
    </clipPath>
  </defs>
  <g
     id="g4142"
     transform="matrix(0.5,0,0,0.5,-1,0)">
    <circle
       r="20"
       cy="24"
       cx="24"
       style="color:#000000;fill:#e74c3c"
       id="path4230" />
    <path
       inkscape:connector-curvature="0"
       style="display:inline;opacity:0.2;fill:#000000;fill-opacity:1;fill-rule:evenodd;stroke:none;stroke-width:2;stroke-linecap:butt;stroke-linejoin:miter;stroke-miterlimit:4;stroke-dasharray:none;stroke-opacity:0.89019608"
       d="m 19.463055,2.0013589 c -0.136638,0.00578 -0.275698,0.02978 -0.413349,0.073885 -0.734139,0.2352459 -1.141425,0.9482527 -0.913174,1.5985335 l 0.572813,1.6320988 C 10.40707,6.1063179 6,14.866125 6,14.866125 c 0,0 2.7780317,0.522448 9.478453,-3.17854 1.861707,-1.028316 2.934941,-2.133669 3.54753,-3.1338576 C 18.89938,9.585436 18.917939,10.908142 19.213493,12.595178 19.955767,16.832155 23.057115,20 23.057115,20 c 0,0 3.753713,-6.233206 -0.27146,-12.3427497 C 28.722433,11.690068 38,9.937351 38,9.937351 c 0,0 -4.15608,-3.9429319 -8.568476,-4.9257231 -3.292575,-0.7333675 -6.323669,-0.2543069 -7.899633,0.1179171 -9.27e-4,-0.1204278 -0.021,-0.2422638 -0.063,-0.3618168 L 20.786807,2.8243801 C 20.601359,2.2960266 20.055118,1.9764657 19.463018,2.0013553 Z"
       id="path4178" />
    <circle
       r="10"
       cy="26"
       transform="matrix(2,0,0,2,-548,-28)"
       cx="286"
       clip-path="url(#clipPath4186)"
       style="color:#000000;opacity:0;stroke-width:0.45455"
       id="path4240" />
    <circle
       r="10"
       cy="26"
       transform="matrix(2,0,0,2,-548,-28)"
       cx="286"
       clip-path="url(#clipPath4186)"
       style="color:#000000;opacity:0;stroke-width:0.90908998"
       id="path4242" />
    <path
       d="M 24,4 C 12.921,4 4.002,12.92 4.002,24 c 0,0.16772 -0.004,0.33329 0,0.5 C 4.2662,13.654 13.089,5 24,5 c 10.911,0 19.734,8.6536 19.998,19.5 0.004,-0.16671 0,-0.33228 0,-0.5 C 43.998,12.92 35.079,4 24,4 Z"
       id="rect3436"
       inkscape:connector-curvature="0"
       style="opacity:0.2;fill:#ffffff" />
    <path
       d="M 43.979,23.418 A 20,20 0 0 1 24,43 20,20 0 0 1 4.022,23.582 20,20 0 0 0 4,24 20,20 0 0 0 24,44 20,20 0 0 0 44,24 20,20 0 0 0 43.979,23.418 Z"
       style="color:#000000;opacity:0.3"
       id="circle4276"
       inkscape:connector-curvature="0" />
    <path
       id="path4216-3"
       d="m 19.463055,1.0013589 c -0.136638,0.00578 -0.275698,0.02978 -0.413349,0.073885 -0.734139,0.2352459 -1.141425,0.9482527 -0.913174,1.5985335 l 0.572813,1.6320988 C 10.40707,5.1063179 6,13.866125 6,13.866125 c 0,0 2.7780317,0.522448 9.478453,-3.17854 C 17.34016,9.659269 18.413394,8.553916 19.025983,7.5537274 18.89938,8.585436 18.917939,9.908142 19.213493,11.595178 19.955767,15.832155 23.057115,19 23.057115,19 c 0,0 3.753713,-6.233206 -0.27146,-12.3427497 C 28.722433,10.690068 38,8.937351 38,8.937351 c 0,0 -4.15608,-3.9429319 -8.568476,-4.9257231 -3.292575,-0.7333675 -6.323669,-0.2543069 -7.899633,0.1179171 -9.27e-4,-0.1204278 -0.021,-0.2422638 -0.063,-0.3618168 L 20.786807,1.8243801 C 20.601359,1.2960266 20.055118,0.9764657 19.463018,1.0013553 Z"
       style="display:inline;fill:#a6ef4d;fill-opacity:1;fill-rule:evenodd;stroke:none;stroke-width:2;stroke-linecap:butt;stroke-linejoin:miter;stroke-miterlimit:4;stroke-dasharray:none;stroke-opacity:0.89019608"
       inkscape:connector-curvature="0" />
    <path
       id="path4173"
       d="m 19.462891,1.0019531 c -0.136638,0.00578 -0.276412,0.030114 -0.414063,0.074219 -0.734139,0.2352459 -1.14036,0.9473754 -0.912109,1.5976562 l 0.05078,0.1445313 c 0.153205,-0.3328143 0.45358,-0.6115296 0.861328,-0.7421875 0.137651,-0.044105 0.277425,-0.068439 0.414063,-0.074219 0.5921,-0.02489 1.13877,0.2939121 1.324218,0.8222657 l 0.681641,1.9433593 c 0.042,0.119553 0.06157,0.2409004 0.0625,0.3613281 1.575964,-0.3722239 4.607816,-0.8505549 7.900391,-0.1171874 3.117803,0.6944411 6.076464,2.8475224 7.5625,4.0625 C 37.432271,9.0137522 38,8.9375 38,8.9375 38,8.9375 33.844037,4.99451 29.431641,4.0117188 26.139066,3.2783513 23.107214,3.7566823 21.53125,4.1289062 21.530323,4.0084785 21.51075,3.8871311 21.46875,3.7675781 L 20.787109,1.8242188 C 20.601661,1.2958653 20.054991,0.97706353 19.462891,1.0019531 Z M 18.376953,4.359375 C 10.294532,5.361527 6,13.865234 6,13.865234 c 0,0 0.1890164,0.03457 0.5722656,0.02344 C 7.9646492,11.622247 12.064747,5.9472271 18.708984,5.3066406 L 18.376953,4.359375 Z m 4.408203,3.2988281 c 1.286245,1.9523063 1.773743,3.9134579 1.847656,5.6835939 0.06851,-1.58205 -0.180206,-3.369604 -1.029296,-5.1933595 -0.276019,-0.1570756 -0.554437,-0.3109533 -0.81836,-0.4902344 z m -3.759765,0.8964844 c -0.01796,0.029314 -0.0457,0.060353 -0.06445,0.089844 -0.0038,0.2292909 -0.0082,0.459134 0.002,0.7109376 0.01178,-0.2844644 0.03189,-0.5513664 0.0625,-0.8007813 z"
       style="display:inline;opacity:0.1;fill:#ffffff;fill-opacity:1;fill-rule:evenodd;stroke:none;stroke-width:2;stroke-linecap:butt;stroke-linejoin:miter;stroke-miterlimit:4;stroke-dasharray:none;stroke-opacity:0.89019608"
       inkscape:connector-curvature="0" />
  </g>
</svg>
